!!!COM: Anon.
!!!OTL: Stella Serena
!!!SCA: Foli 249'-250
!!!YOR: from 'Thirty-Five Conductus for Two and Three Voices', pp.47-51
!!!YOR: edited by Janet Knapp, Collegium Musicum No. 6, Yale University (1965)
!!!YOR: from the School of Notre Dame; circa 1170-1240
!!!YOO: Yale University
!!!YOY: 1965
**kern	**kern	**kern
*M6/8	*M6/8	*M6/8
=1	=1	=1
4.G	4.g	4.d
4A	4.r	4d
8B	.	8d
=2	=2	=2
4.A	4.e	4.e
4.B-	8f	4e
.	8e	.
.	8d	8f
=3	=3	=3
8c	4.c	8g
8B-	.	8f
8A	.	8e
4.G	4.B-	4.d
=4	=4	=4
4.F	4.c	4.f
4.r	4.r	4.r
=5	=5	=5
4.B-	4.f	4.b-
4c	4e	4b-
8d	8d	8a
=6	=6	=6
4.c	8g	4.g
.	8f	.
.	8e	.
4.B-	4.d	4f
.	.	8g
=7	=7	=7
4.A	4.e	4.a
4.r	4.r	4.r
=8	=8	=8
4B-	4f	4b-
8c	8e	8g
4.d	4d	4a
.	8g	8g
=9	=9	=9
4.c	8f	4f
.	8e	.
.	8f	8g
4d	4d	4a
8r	8r	8r
=10	=10	=10
4f	4B-	8b-
.	.	8a
8g	8G	8g
8f	4B-	8f
8e	.	8e
8c	8A	8d
=11	=11	=11
4B-	4B-	4f
8c	8c	8r
4d	4B-	4f
8c	8A	8g
=12	=12	=12
8B-	4.B-	8f
8A	.	8e
8G	.	8d
4.F	4.c	4.f
=13	=13	=13
4.G	4.B-	4f
.	.	8r
4.A	4.A	4e
.	.	8d
=14	=14	=14
8c	4.G	4c
8B-	.	.
8B-	.	8d
4.A	4.F	8f
.	.	8e
.	.	8f
=15	=15	=15
4.G	4.G	4.d
4.r	4.r	4.r
=16	=16	=16
4A	4d	8a
.	.	8g
8B-	8f	8f
4A	4e	4e
8G	8g	8d
=17	=17	=17
4.A	4.e	4e
.	.	8d
4D	4d	4d
8r	8r	8r
=18	=18	=18
4.F	4.c	4.f
4.G	8d	16g
.	.	16f
.	8c	8e
.	8B-	8d
=19	=19	=19
4.A	4.A	4.e
4.r	4.r	4.r
=20	=20	=20
4.c	4.F	4.f
4.B-	4.G	4e
.	.	8d
=21	=21	=21
4A	4A	8a
.	.	8g
8G	8B-	8f
4.A	4A	4e
.	8B-	8d
=22	=22	=22
4.F	4.c	4.f
4.r	4.r	4.r
=23	=23	=23
4c	4.F	4f
8c	.	8g
4.B-	4F	4f
.	8G	8d
=24	=24	=24
4.A	4.A	4.e
4.r	4.r	4.r
=25	=25	=25
4B-	4f	4b-
8c	8e	8b-
4d	4d	4a
8e	8c	8g
=26	=26	=26
8f	8B-	4f
8e	8A	.
8c	8G	8g
4B-	4B-	4f
8c	8c	8r
=27	=27	=27
8d	8B-	4f
8c	8A	.
8B-	8G	8g
4A	4A	4a
8G	8B-	8g
=28	=28	=28
4.F	4.A	4.f
4G	4G	4g
8r	8r	8r
=29	=29	=29
4B-	4B-	8b-
.	.	8a
8c	8r	8g
4B-	4B-	4f
8A	8c	8e
=30	=30	=30
4.G	8d	4d
.	8c	.
.	8B-	8e
4F	4c	4f
8r	8r	8r
=31	=31	=31
4.B-	4.f	4.f
4A	4e	4.r
8B-	8d	.
=32	=32	=32
8c	4.c	4.g
8B-	.	.
8A	.	.
4G	4.r	4.r
8r	.	.
=33	=33	=33
4B-	4B-	4f
8c	8A	8e
8d	8G	8g
8c	8F	8f
8B-	8G	8e
=34	=34	=34
4.A	4.A	4d
.	.	8c
4D	4A	4d
8r	8r	8r
=35	=35	=35
4d	4d	4a
8c	8e	8g
8B-	4f	8f
8A	.	8e
8G	8d	8d
=36	=36	=36
8F	8f	4c
8E	8e	.
8F	8c	8r
4.D	4.d	4d
.	.	8e
=37	=37	=37
4.F	4.c	4f
.	.	8g
4F	4c	8f
.	.	8e
8G	8B-	8d
=38	=38	=38
4.A	4.A	4.e
4.r	4.r	4.r
=39	=39	=39
4.B-	4.B-	4.f
4c	4A	4.g
8d	8G	.
=40	=40	=40
4.c	4.F	4.f
4c	4F	4f
8B-	8G	8e
=41	=41	=41
4A	4c	4c
8G	8B-	8d
4G	4B-	4e
8F	8A	8f
=42	=42	=42
4.G	4.G	4.d
4.r	4.r	4.r
=43	=43	=43
4B-	4d	4f
8c	8c	8e
8B-	4d	4d
8A	.	.
8c	8e	8g
=44	=44	=44
4.B-	4.f	8f
.	.	8e
.	.	8d
4B-	4f	4f
8r	8e	8r
=45	=45	=45
4d	4d	4a
8e	8r	8g
8f	4B-	4f
8d	.	.
8c	8c	8g
=46	=46	=46
8B-	4d	8f
8A	.	8e
8G	8e	8d
4F	4f	4c
8G	8e	8r
=47	=47	=47
4B-	4d	4d
8A	8c	8e
4.G	4.B-	4d
.	.	8e
=48	=48	=48
2.F	4.A	4.c
.	4.A	4.c
=49	=49	=49
4.G	4.G	4.d
4.r	4.r	4.r
=50	=50	=50
4.d	4.G	4g
.	.	8f
4.e	4.A	8e
.	.	8d
.	.	8e
=51	=51	=51
4.f	2.F	2.c
4f	.	.
8e	.	.
=52	=52	=52
4d	4G	4d
8c	8F	8f
4c	4G	4e
8d	8A	8d
=53	=53	=53
4.B-	4.B-	4.f
4.r	4.r	4.r
=54	=54	=54
4.c	4.c	4.g
8B-	4.d	8g
8A	.	8a
8G	.	8g
=55	=55	=55
4.F	4.f	4.f
4G	4d	4g
8A	8e	8e
=56	=56	=56
4B-	4d	4f
8c	8c	8g
8B-	4.B-	4f
8A	.	.
8G	.	8e
=57	=57	=57
4.A	4.A	4.d
4.r	4.r	4.r
=58	=58	=58
4B-	4B-	8f
.	.	8e
8c	8A	8f
4d	4G	4g
8r	8F	8r
=59	=59	=59
4d	4G	4g
8r	8A	8a
4d	4B-	4g
8c	8A	8f
=60	=60	=60
4d	4G	4g
8r	8r	8r
4e	4A	4a
8d	8B-	8g
=61	=61	=61
4c	4c	4a
8c	8c	8r
4d	8B-	4f
.	8A	.
8c	8G	8g
=62	=62	=62
8B-	4.B-	4f
8A	.	.
8G	.	8e
4.B-	4.d	4d
.	.	8r
=63	=63	=63
4c	4c	4g
8r	8r	8f
4d	4d	4a
8e	8c	8g
=64	=64	=64
4f	4B-	8f
.	.	8e
8g	8c	8f
4G	4d	4g
8r	8c	8r
=65	=65	=65
4B-	4B-	4f
8c	8A	8e
8B-	4B-	4f
8A	.	.
8G	8c	8d
=66	=66	=66
4.F	4B-	4.f
.	8A	.
4G	4G	4g
8r	8r	8r
=67	=67	=67
4.B-	4.f	4.b-
4A	4e	4a
8B-	8d	8b-
=68	=68	=68
8c	4.c	4.g
8B-	.	.
8A	.	.
4G	4g	4d
8r	8r	8r
=69	=69	=69
4.B-	4.f	4.f
4c	4e	4e
8d	8d	8f
=70	=70	=70
4.c	4.c	2.g
4c	4c	.
8B-	8B-	.
=71	=71	=71
4A	4c	4f
8G	8d	8d
4G	4d	4d
8A	8B-	8e
=72	=72	=72
4.F	4.c	4.f
4.r	4.r	4.r
=73	=73	=73
4.f	4.B-	4.b-
4e	4A	4a
8d	8B-	8g
=74	=74	=74
4c	4c	4g
8r	8r	8r
4B-	4B-	4f
8A	8A	8g
=75	=75	=75
4G	4B-	8f
.	.	8e
8F	8c	8d
4.B-	4.B-	4.f
=76	=76	=76
4B-	4B-	4f
8r	8r	8r
4.f	4.B-	4.b-
=77	=77	=77
4e	4A	4a
8d	8B-	8g
4c	4c	4g
8r	8r	8r
=78	=78	=78
4B-	4d	4f
8A	8c	8e
4G	4B-	4d
8A	8c	8c
=79	=79	=79
4.F	4.A	4.f
4F	4.A	4.f
8G	.	.
=80	=80	=80
4.G	4.G	4.g
4.r	4.r	4.r
=81	=81	=81
4.B-	4.B-	4.f
4A	4A	4e
8B-	8G	8d
=82	=82	=82
8c	4.F	4.f
8B-	.	.
8A	.	.
4.G	4G	4f
.	8A	8g
=83	=83	=83
4.F	4.B-	4.f
4G	4c	4e
8A	8d	8d
=84	=84	=84
4.B-	4.B-	4.f
4.r	4.r	4.r
=85	=85	=85
4d	4d	4a
8e	8c	8r
8f	4B-	4f
8d	.	.
8c	8c	8g
=86	=86	=86
4.e	4A	4a
.	8G	8g
4.f	4.F	4.f
=87	=87	=87
4.d	4.G	4.g
4.r	4.r	4.r
=88	=88	=88
4g	4G	8d
.	.	8e
8f	8G	8f
4d	4G	4g
8B-	8B-	8g
=89	=89	=89
8c	8c	8f
8B-	8B-	8e
8A	8c	8f
4.G	4.d	4.g
=90	=90	=90
2.F	4.c	4.f
.	4c	4f
.	8B-	8e
=91	=91	=91
4c	4A	4.c
8B-	8G	.
4B-	4G	8d
.	.	8e
8A	8F	8f
=92	=92	=92
4.G	4.G	4.d
4.r	4.r	4.r
=93	=93	=93
4B-	4.f	8b-
.	.	8a
8c	.	8g
4d	4.f	8f
.	.	8e
8d	.	8d
=94	=94	=94
8c	4.g	4.c
8B-	.	.
8A	.	.
4G	4g	4d
8F	8r	8r
=95	=95	=95
4B-	8f	4f
.	8e	.
8c	8d	8g
8B-	8f	8f
8A	8d	8e
8G	8c	8d
=96	=96	=96
4.B-	4.B-	4f
.	.	8g
4B-	4B-	4f
8r	8r	8r
=97	=97	=97
4B-	4.f	8b-
.	.	8a
8c	.	8g
4d	4.f	8f
.	.	8e
8d	.	8d
=98	=98	=98
8c	4.g	4.c
8B-	.	.
8A	.	.
4G	4g	4d
8F	8r	8r
=99	=99	=99
4B-	8f	4f
.	8e	.
8A	8d	8g
4G	8c	8f
.	8B-	8e
8F	8A	8d
=100	=100	=100
4.G	4.G	4.f
4G	4G	4g
8r	8r	8r
=101	=101	=101
4d	4f	8f
.	.	8e
8d	8f	8d
4c	4g	4c
8B-	8g	8e
=102	=102	=102
4c	4.c	4.g
8c	.	.
4F	4c	4f
8r	8d	8r
=103	=103	=103
4F	4f	8f
.	.	8e
8F	8e	8f
4G	4d	4g
8A	8d	8g
=104	=104	=104
4.B-	4.B-	4f
.	.	8d
4B-	4B-	4f
8r	8r	8r
=105	=105	=105
4d	4f	8f
.	.	8e
8d	8f	8d
4c	4g	4c
8B-	8g	8e
=106	=106	=106
4c	4.c	4.g
8c	.	.
4F	4c	4f
8G	8d	8r
=107	=107	=107
4B-	8f	8f
.	8e	8e
8c	8d	8f
8d	8c	4g
8e	8B-	.
8c	8A	8a
=108	=108	=108
4.d	4.G	4.g
4d	4G	4g
8r	8r	8r
=109	=109	=109
4f	4B-	4b-
8e	8c	8a
4d	4d	4g
8d	8d	8r
=110	=110	=110
8c	4d	4g
8B-	.	.
8A	8G	8r
4G	4d	4g
8A	8e	8r
=111	=111	=111
4.c	4g	4g
.	8f	8g
4.B-	8f	8f
.	8e	8e
.	8d	8d
=112	=112	=112
4.c	4.c	4f
.	.	8g
4c	4c	4f
8r	8r	8r
=113	=113	=113
4f	4B-	4b-
8e	8c	8a
4d	4d	4g
8d	8d	8r
=114	=114	=114
8c	4d	4g
8B-	.	.
8A	8G	8r
4G	4d	4g
8A	8e	8r
=115	=115	=115
4c	4g	4g
8A	8f	8g
4B-	8f	8f
.	8e	8e
8A	8c	8f
=116	=116	=116
4.G	4.d	4.g
4G	4d	4g
8r	8r	8r
=117	=117	=117
4B-	4f	8b-
.	.	8a
8A	8f	8g
4B-	4f	4f
8c	8e	8g
=118	=118	=118
4d	4d	4a
8G	8d	8a
4d	4d	4d
8B-	8e	8r
=119	=119	=119
4.c	4c	4g
.	8c	8g
4F	4c	8f
.	.	8e
8G	8d	8d
=120	=120	=120
4.B-	4.B-	4.f
4B-	4B-	4f
8r	8r	8r
=121	=121	=121
4B-	4f	8b-
.	.	8a
8A	8f	8g
4B-	4f	4f
8c	8e	8g
=122	=122	=122
4d	4d	4a
8G	8d	8a
4d	4d	4d
8e	8e	8r
=123	=123	=123
4g	4c	4g
8f	8c	8g
4g	4c	8f
.	.	8e
8f	8B-	8f
=124	=124	=124
4d	4.d	4.g
8B-	.	.
4G	4d	4g
8r	8e	8r
=125	=125	=125
[2.F	16f	8c
.	16e	.
.	16d	8d
.	16c	.
.	16B-	8e
.	16A	.
.	4.G	4.f
=126	=126	=126
4.F]	4.c	4.f
4G;	4d;	4g;
8r	8r	8r
==	==	==
*-	*-	*-
!!!ENC: David Huron
!!!YEC: Copyright 1987, David Huron
!!!EEV: 1.0
